bicons/scalable/emblems/template.svg

<?xml version="1.0" encoding="UTF-8" standalone="no"?>
<!-- Created with Inkscape (http://www.inkscape.org/) -->
<svg xmlns:dc="http://purl.org/dc/elements/1.1/" xmlns:cc="http://creativecommons.org/ns#" xmlns:rdf="http://www.w3.org/1999/02/22-rdf-syntax-ns#" xmlns:svg="http://www.w3.org/2000/svg" xmlns="http://www.w3.org/2000/svg" xmlns:sodipodi="http://sodipodi.sourceforge.net/DTD/sodipodi-0.dtd" xmlns:inkscape="http://www.inkscape.org/namespaces/inkscape" width="210mm" height="297mm" viewBox="0 0 744.09448819 1052.3622047" id="svg2" version="1.1" inkscape:version="0.91 r13725" inkscape:export-xdpi="4" inkscape:export-ydpi="4">
  <defs id="defs4">
    <linearGradient id="linearGradient2224">
      <stop id="stop2226" offset="0" style="stop-color:#7c7c7c;stop-opacity:1;"/>
      <stop id="stop2228" offset="1" style="stop-color:#b8b8b8;stop-opacity:1;"/>
    </linearGradient>
    <linearGradient id="linearGradient15218">
      <stop id="stop15220" offset="0" style="stop-color:#eeeeef;stop-opacity:1;"/>
      <stop id="stop2736" offset="0.59928656" style="stop-color:#d3d7cf;stop-opacity:1;"/>
      <stop id="stop2738" offset="0.82758623" style="stop-color:#ffffff;stop-opacity:1;"/>
      <stop id="stop15222" offset="1" style="stop-color:#d3d7cf;stop-opacity:1;"/>
    </linearGradient>
    <pattern y="0" x="0" height="6" width="6" patternUnits="userSpaceOnUse" id="EMFhbasepattern"/>
    <pattern y="0" x="0" height="6" width="6" patternUnits="userSpaceOnUse" id="EMFhbasepattern-5"/>
  </defs>
  <sodipodi:namedview id="base" pagecolor="#ffffff" bordercolor="#666666" borderopacity="1.0" inkscape:pageopacity="0.0" inkscape:pageshadow="2" inkscape:zoom="1" inkscape:cx="295.76252" inkscape:cy="512.47472" inkscape:document-units="px" inkscape:current-layer="layer1" showgrid="false" showguides="true" inkscape:guide-bbox="true" inkscape:window-width="1366" inkscape:window-height="721" inkscape:window-x="-4" inkscape:window-y="-4" inkscape:window-maximized="1">
    <sodipodi:guide position="560,730.00002" orientation="0,1" id="guide3338"/>
    <sodipodi:guide position="560,330.00001" orientation="0,1" id="guide3340"/>
    <sodipodi:guide position="190,475.00001" orientation="1,0" id="guide3344"/>
    <sodipodi:guide position="590,451.00001" orientation="1,0" id="guide3346"/>
    <inkscape:grid type="xygrid" id="grid3440"/>
    <sodipodi:guide position="-111.01577,704.98548" orientation="0,1" id="guide4151"/>
    <sodipodi:guide position="54.25,355.00001" orientation="0,1" id="guide4153"/>
    <sodipodi:guide position="215,442.00001" orientation="1,0" id="guide4155"/>
    <sodipodi:guide position="564.97832,467.39759" orientation="1,0" id="guide4157"/>
  </sodipodi:namedview>
  <metadata id="metadata7">
    <rdf:RDF>
      <cc:Work rdf:about="">
        <dc:format>image/svg+xml</dc:format>
        <dc:type rdf:resource="http://purl.org/dc/dcmitype/StillImage"/>
      </cc:Work>
    </rdf:RDF>
  </metadata>
  <g inkscape:label="Ebene 1" inkscape:groupmode="layer" id="layer1">
    <rect style="opacity:1;fill:none;fill-opacity:1;stroke:none;stroke-width:23;stroke-linecap:butt;stroke-linejoin:round;stroke-miterlimit:4;stroke-dasharray:none;stroke-opacity:1" id="rect4160" width="400" height="400" x="190" y="322.36221"/>
    <g id="g4158" transform="matrix(1.1428557,0,0,1.1428557,-55.268415,-74.610636)">
      <path id="path4244" d="m 437.72852,347.29297 -168.91993,0.0176 c -9.9648,-0.0167 -14.93652,4.91103 -14.89453,14.72851 -0.0419,81.65281 -0.0402,220.84587 -0.0137,320.28906 -0.0265,9.92346 4.97286,14.95776 14.85352,14.89063 l 243.56836,0.0625 c 9.99434,-0.0572 14.96779,-5.03043 15.0332,-15.05664 l 0.002,-245.52149 c -3.38781,0.31744 -17.64525,1.60298 -33.74023,2.20313 -9.1568,0.34143 -18.68213,0.45853 -27.13477,-0.0547 -4.22632,-0.25661 -8.17024,-0.65303 -11.97656,-1.4082 -3.80632,-0.75517 -7.44489,-1.32409 -12.26367,-4.96094 -9.0065,-6.79742 -9.45096,-15.60503 -9.71485,-22.62109 -0.26388,-7.01606 0.53194,-14.15391 1.48047,-21.57422 1.89707,-14.84062 4.38057,-31.05295 3.75,-39.93164 a 15.0015,15.0015 0 0 1 -0.0293,-1.0625 z m 27.99218,30.4043 c -0.68264,4.90316 -1.38629,9.94311 -1.95508,14.39257 -0.85208,6.66585 -1.33414,12.51357 -1.24414,16.17188 1.66947,0.24117 3.33,0.49777 5.7793,0.64648 6.74454,0.40953 15.60048,0.33821 24.19922,0.0176 1.80443,-0.0673 3.08932,-0.1984 4.85352,-0.2832 -5.0647,-5.30186 -10.54173,-10.901 -16.34766,-16.5957 -5.47919,-5.37424 -10.23105,-9.65743 -15.28516,-14.34961 z" style="fill:#9397a2;fill-opacity:1;fill-rule:evenodd;stroke:none;stroke-width:1px;stroke-linecap:butt;stroke-linejoin:miter;stroke-opacity:1" inkscape:connector-curvature="0"/>
      <path style="fill:#c1d53a;fill-opacity:1;fill-rule:evenodd;stroke:none;stroke-width:1px;stroke-linecap:butt;stroke-linejoin:miter;stroke-opacity:1" d="m 452.71992,347.29254 c 3.97779,-1.03665 74.59584,67.04252 74.59584,74.35291 0,0 -66.00742,6.43304 -76.03688,-1.13644 -10.02946,-7.56947 3.16942,-48.87991 1.44104,-73.21647 z" id="path4288" inkscape:connector-curvature="0" sodipodi:nodetypes="cczc" inkscape:export-xdpi="4.9499998" inkscape:export-ydpi="4.9499998"/>
      <path inkscape:connector-curvature="0" id="path4198" d="m 290,482.3622 200,0" style="fill:none;fill-rule:evenodd;stroke:#ffffff;stroke-width:30;stroke-linecap:round;stroke-linejoin:round;stroke-miterlimit:4;stroke-dasharray:21.5, 43;stroke-dashoffset:0;stroke-opacity:1"/>
      <path style="fill:none;fill-rule:evenodd;stroke:#ffffff;stroke-width:30;stroke-linecap:round;stroke-linejoin:round;stroke-miterlimit:4;stroke-dasharray:21.5, 43;stroke-dashoffset:0;stroke-opacity:1" d="m 290,526.3622 200,0" id="path4200" inkscape:connector-curvature="0"/>
      <path inkscape:connector-curvature="0" id="path4202" d="m 290,572.3622 200,0" style="fill:none;fill-rule:evenodd;stroke:#ffffff;stroke-width:30;stroke-linecap:round;stroke-linejoin:round;stroke-miterlimit:4;stroke-dasharray:21.5, 43;stroke-dashoffset:0;stroke-opacity:1"/>
    </g>
  </g>
</svg>

<?xml version="1.0" encoding="UTF-8" standalone="no"?>
<!-- Created with Inkscape (http://www.inkscape.org/) -->

<svg
   xmlns:dc="http://purl.org/dc/elements/1.1/"
   xmlns:cc="http://creativecommons.org/ns#"
   xmlns:rdf="http://www.w3.org/1999/02/22-rdf-syntax-ns#"
   xmlns:svg="http://www.w3.org/2000/svg"
   xmlns="http://www.w3.org/2000/svg"
   xmlns:sodipodi="http://sodipodi.sourceforge.net/DTD/sodipodi-0.dtd"
   xmlns:inkscape="http://www.inkscape.org/namespaces/inkscape"
   width="210mm"
   height="297mm"
   viewBox="0 0 744.09448819 1052.3622047"
   id="svg2"
   version="1.1"
   inkscape:version="0.91 r13725"
   sodipodi:docname="template.svg"
   inkscape:export-filename="C:\Users\johannes\Documents\Arbeit\RRZE\bi-con\bi-con\scalable\documents\document.png"
   inkscape:export-xdpi="4"
   inkscape:export-ydpi="4">
  <defs
     id="defs4">
    <linearGradient
       id="linearGradient2224">
      <stop
         id="stop2226"
         offset="0"
         style="stop-color:#7c7c7c;stop-opacity:1;" />
      <stop
         id="stop2228"
         offset="1"
         style="stop-color:#b8b8b8;stop-opacity:1;" />
    </linearGradient>
    <linearGradient
       id="linearGradient15218">
      <stop
         id="stop15220"
         offset="0"
         style="stop-color:#eeeeef;stop-opacity:1;" />
      <stop
         id="stop2736"
         offset="0.59928656"
         style="stop-color:#d3d7cf;stop-opacity:1;" />
      <stop
         id="stop2738"
         offset="0.82758623"
         style="stop-color:#ffffff;stop-opacity:1;" />
      <stop
         id="stop15222"
         offset="1"
         style="stop-color:#d3d7cf;stop-opacity:1;" />
    </linearGradient>
    <pattern
       y="0"
       x="0"
       height="6"
       width="6"
       patternUnits="userSpaceOnUse"
       id="EMFhbasepattern" />
    <pattern
       y="0"
       x="0"
       height="6"
       width="6"
       patternUnits="userSpaceOnUse"
       id="EMFhbasepattern-5" />
  </defs>
  <sodipodi:namedview
     id="base"
     pagecolor="#ffffff"
     bordercolor="#666666"
     borderopacity="1.0"
     inkscape:pageopacity="0.0"
     inkscape:pageshadow="2"
     inkscape:zoom="0.5"
     inkscape:cx="7.1357111"
     inkscape:cy="576.82924"
     inkscape:document-units="px"
     inkscape:current-layer="layer1"
     showgrid="false"
     showguides="true"
     inkscape:guide-bbox="true"
     inkscape:window-width="1366"
     inkscape:window-height="721"
     inkscape:window-x="-4"
     inkscape:window-y="-4"
     inkscape:window-maximized="1">
    <sodipodi:guide
       position="560,730.00002"
       orientation="0,1"
       id="guide3338" />
    <sodipodi:guide
       position="560,330.00001"
       orientation="0,1"
       id="guide3340" />
    <sodipodi:guide
       position="190,475.00001"
       orientation="1,0"
       id="guide3344" />
    <sodipodi:guide
       position="590,451.00001"
       orientation="1,0"
       id="guide3346" />
    <inkscape:grid
       type="xygrid"
       id="grid3440" />
    <sodipodi:guide
       position="-111.01577,704.98548"
       orientation="0,1"
       id="guide4151" />
    <sodipodi:guide
       position="54.25,355.00001"
       orientation="0,1"
       id="guide4153" />
    <sodipodi:guide
       position="215,442.00001"
       orientation="1,0"
       id="guide4155" />
    <sodipodi:guide
       position="564.97832,467.39759"
       orientation="1,0"
       id="guide4157" />
  </sodipodi:namedview>
  <metadata
     id="metadata7">
    <rdf:RDF>
      <cc:Work
         rdf:about="">
        <dc:format>image/svg+xml</dc:format>
        <dc:type
           rdf:resource="http://purl.org/dc/dcmitype/StillImage" />
      </cc:Work>
    </rdf:RDF>
  </metadata>
  <g
     inkscape:label="Ebene 1"
     inkscape:groupmode="layer"
     id="layer1">
    <rect
       style="opacity:1;fill:none;fill-opacity:1;stroke:none;stroke-width:23;stroke-linecap:butt;stroke-linejoin:round;stroke-miterlimit:4;stroke-dasharray:none;stroke-opacity:1"
       id="rect4160"
       width="400"
       height="400"
       x="190"
       y="322.36221" />
    <path
       style="fill:#9397a2;fill-opacity:1;fill-rule:evenodd;stroke:none;stroke-width:1px;stroke-linecap:butt;stroke-linejoin:miter;stroke-opacity:1"
       d="M 437.72852 347.29297 L 268.80859 347.31055 C 258.84379 347.29385 253.87207 352.22158 253.91406 362.03906 C 253.87216 443.69187 253.87389 582.88493 253.90039 682.32812 C 253.87389 692.25158 258.87325 697.28588 268.75391 697.21875 L 512.32227 697.28125 C 522.31661 697.22405 527.29006 692.25082 527.35547 682.22461 L 527.35742 436.70312 C 523.96961 437.02056 509.71217 438.3061 493.61719 438.90625 C 484.46039 439.24768 474.93506 439.36478 466.48242 438.85156 C 462.2561 438.59495 458.31218 438.19853 454.50586 437.44336 C 450.69954 436.68819 447.06097 436.11927 442.24219 432.48242 C 433.23569 425.685 432.79123 416.87739 432.52734 409.86133 C 432.26346 402.84527 433.05928 395.70742 434.00781 388.28711 C 435.90488 373.44649 438.38838 357.23416 437.75781 348.35547 A 15.0015 15.0015 0 0 1 437.72852 347.29297 z M 465.7207 377.69727 C 465.03806 382.60043 464.33441 387.64038 463.76562 392.08984 C 462.91354 398.75569 462.43148 404.60341 462.52148 408.26172 C 464.19095 408.50289 465.85148 408.75949 468.30078 408.9082 C 475.04532 409.31773 483.90126 409.24641 492.5 408.92578 C 494.30443 408.8585 495.58932 408.72738 497.35352 408.64258 C 492.28882 403.34072 486.81179 397.74158 481.00586 392.04688 C 475.52667 386.67264 470.77481 382.38945 465.7207 377.69727 z "
       id="path4244" />
    <path
       inkscape:export-ydpi="4.9499998"
       inkscape:export-xdpi="4.9499998"
       sodipodi:nodetypes="cczc"
       inkscape:connector-curvature="0"
       id="path4288"
       d="m 452.71992,347.29254 c 3.97779,-1.03665 74.59584,67.04252 74.59584,74.35291 0,0 -66.00742,6.43304 -76.03688,-1.13644 -10.02946,-7.56947 3.16942,-48.87991 1.44104,-73.21647 z"
       style="fill:#c1d53a;fill-opacity:1;fill-rule:evenodd;stroke:none;stroke-width:1px;stroke-linecap:butt;stroke-linejoin:miter;stroke-opacity:1" />
    <path
       style="fill:none;fill-rule:evenodd;stroke:#ffffff;stroke-width:30;stroke-linecap:round;stroke-linejoin:round;stroke-opacity:1;stroke-miterlimit:4;stroke-dasharray:21.5,43;stroke-dashoffset:0"
       d="m 290,482.3622 200,0"
       id="path4198"
       inkscape:connector-curvature="0" />
    <path
       inkscape:connector-curvature="0"
       id="path4200"
       d="m 290,526.3622 200,0"
       style="fill:none;fill-rule:evenodd;stroke:#ffffff;stroke-width:30;stroke-linecap:round;stroke-linejoin:round;stroke-miterlimit:4;stroke-dasharray:21.5, 43;stroke-dashoffset:0;stroke-opacity:1" />
    <path
       style="fill:none;fill-rule:evenodd;stroke:#ffffff;stroke-width:30;stroke-linecap:round;stroke-linejoin:round;stroke-miterlimit:4;stroke-dasharray:21.5, 43;stroke-dashoffset:0;stroke-opacity:1"
       d="m 290,572.3622 200,0"
       id="path4202"
       inkscape:connector-curvature="0" />
  </g>
</svg>
